svg/OSM-icons/man_made #fabe0b °373737 !label=enman made,deKünstliches/22083;man_made=water_well;!name=;!label=enwater well,deWasser- brunnen.svg

<svg xmlns="http://www.w3.org/2000/svg" viewBox="0 0 580 580" enable-background="new 0 0 580 580"><path fill="#111" stroke="#eee" stroke-width="3.408" d="m66.28 1.768c-41.34 0-64.57 21.371-64.57 65.04v450.12c0 40.844 20.894 62.23 62.19 62.23h452.02c41.31 0 62.23-20.316 62.23-62.23v-450.12c0-42.601-20.923-65.04-63.52-65.04-.003 0-448.49-.143-448.35 0z"/><path fill="#fff" d="m514.79 216.53h-80.86v-98.89h-22.2-3.654-42.896v-41.38h-35.26v41.38h-49.25v-18.413h-78.63v18.413h-58.13v-43.21h-35.27v43.21h-43.45v25.859h43.45v160.34h-38.29v51.725h25.862v149.99h274.12v-149.99h31.04v-51.725h-36.21v-160.34h42.896v105.97h25.854v-7.08h80.85v-25.859m-370.87-73.03h58.13v10.589h8.535v149.75h-66.66v-160.34m186.01 160.34h-106.28v-149.75h57.02v-10.589h49.25v160.34z"/></svg>

<?xml version="1.0" encoding="utf-8"?>
<!-- Generator: Adobe Illustrator 15.0.0, SVG Export Plug-In . SVG Version: 6.00 Build 0)  -->
<!DOCTYPE svg PUBLIC "-//W3C//DTD SVG 1.1//EN" "http://www.w3.org/Graphics/SVG/1.1/DTD/svg11.dtd">
<svg version="1.1" xmlns="http://www.w3.org/2000/svg" xmlns:xlink="http://www.w3.org/1999/xlink" x="0px" y="0px" width="580px"
	 height="580px" viewBox="0 0 580 580" enable-background="new 0 0 580 580" xml:space="preserve">
<g id="Layer_2">
	<g id="g1327">
		<path id="path1329" fill="#111111" stroke="#EEEEEE" stroke-width="3.408" d="M66.275,1.768
			c-41.335,0-64.571,21.371-64.571,65.036v450.123c0,40.844,20.894,62.229,62.192,62.229H515.92
			c41.307,0,62.229-20.316,62.229-62.229V66.804c0-42.601-20.923-65.036-63.522-65.036C514.624,1.768,66.133,1.625,66.275,1.768z"/>
	</g>
</g>
<g id="svg2" inkscape:output_extension="org.inkscape.output.svg.inkscape" inkscape:version="0.46" sodipodi:docname="waste_bin.svg" sodipodi:version="0.32" xmlns:inkscape="http://www.inkscape.org/namespaces/inkscape" xmlns:rdf="http://www.w3.org/1999/02/22-rdf-syntax-ns#" xmlns:svg="http://www.w3.org/2000/svg" xmlns:sodipodi="http://sodipodi.sourceforge.net/DTD/sodipodi-0.dtd" xmlns:cc="http://creativecommons.org/ns#" xmlns:dc="http://purl.org/dc/elements/1.1/">
	<path fill="#FFFFFF" d="M514.795,216.534h-80.855v-98.889H411.74h-3.654h-42.896V76.268h-35.258v41.377H280.68V99.232h-78.627
		v18.413h-58.128V74.437h-35.267v43.209H65.205v25.859h43.454v160.341H70.373v51.725h25.862v149.993h274.123V355.57h31.039v-51.725
		h-36.207V143.504h42.896V249.47h25.854v-7.077h80.855V216.534z M143.925,143.504h58.128v10.589h8.535v149.752h-66.663V143.504z
		 M329.932,303.846H223.656V154.093h57.024v-10.589h49.251V303.846z"/>
</g>
</svg>
